X: 1438
T: An Ugly Customer
R: reel
M: 4/4
K: Gmajor
DGBd d2Bd|d2Bd cAA2|DGBd dBed|dBAc BGGE|
DGBd d2Bd|d2Bd cAA2|DGBd d2Bd|ecAc BGGd||
~g3d efge|d~B3 c~A3|~g3d efge|dBAc BGGd|
~g3d efge|d~B3 c~A3|GABd egfa|gedc BGGE||

